brandFactory_export/1.Light/Data virus_1Light.svg

<?xml version="1.0" encoding="UTF-8"?>
<svg width="24px" height="24px" viewBox="0 0 24 24" version="1.1" xmlns="http://www.w3.org/2000/svg" xmlns:xlink="http://www.w3.org/1999/xlink">
    <title>1.Light/Data virus_1Light</title>
    <g id="Symbols" stroke="none" stroke-width="1" fill="none" fill-rule="evenodd">
        <g id="1.Light/Data-virus_1Light" fill="#5CB615" fill-rule="nonzero">
            <path d="M7.55294118,17.6504202 C9.10252101,17.6504202 9.52941176,17.0823529 9.52941176,15.0151261 C9.52941176,13.7243697 9.34117647,13.0352941 8.89747899,12.702521 C8.61176471,12.487395 8.17142857,12.3831933 7.55630252,12.3831933 C6.93445378,12.3831933 6.49411765,12.4907563 6.20504202,12.7092437 C5.76806723,13.0420168 5.57981212,13.7344538 5.57981212,15.0151261 C5.57647059,17.0823529 6,17.6504202 7.55294118,17.6504202 Z M7.55630252,10.8436975 C6.21512605,10.8436975 6.21512605,11.1428571 6.21512605,11.5193277 C6.21512605,11.5563025 6.21848739,11.5764706 6.22184874,11.6067227 C6.59495798,11.4722689 7.03193277,11.3983193 7.55294118,11.3983193 C8.08067227,11.3983193 8.51764706,11.4722689 8.8907563,11.610084 C8.89411765,11.5798319 8.89747899,11.5563025 8.89747899,11.5193277 C8.89747899,11.1394958 8.89747899,10.8436975 7.55630252,10.8436975 L7.55630252,10.8436975 Z M11.1865546,14.1512605 C11.4588235,14.1512605 11.6806723,14.3697479 11.6806723,14.6420168 L11.6806723,15.4151261 C11.6806723,15.687395 11.4588235,15.9058824 11.189916,15.9058824 C10.9176471,15.9058824 10.6957983,15.687395 10.6957983,15.4151261 L10.6957983,15.1294118 L10.5109244,15.1294118 C10.5042017,15.7546218 10.4470588,16.3092437 10.312605,16.789916 L11.0789916,17.0218487 C11.2941176,17.0890756 11.4386555,17.2941176 11.4285714,17.5193277 L11.3647059,18.6857143 C11.3512605,18.9478992 11.1327731,19.1529412 10.8739496,19.1529412 L10.8470588,19.1529412 C10.5747899,19.1394958 10.3663866,18.907563 10.3798319,18.6352941 L10.4201681,17.8521008 L9.89915966,17.6941176 C9.46218487,18.2857143 8.73613445,18.6285714 7.55294118,18.6285714 C6.36302521,18.6285714 5.63697479,18.2857143 5.2,17.6907563 L4.66218487,17.8521008 L4.70252101,18.6352941 C4.71596639,18.9042017 4.51092437,19.1361345 4.23865546,19.1529412 L4.20840336,19.1529412 C3.94621849,19.1529412 3.73109244,18.9478992 3.71764706,18.6890756 L3.65714286,17.5226891 C3.64369748,17.297479 3.78823529,17.092437 4.00336134,17.0252101 L4.78655462,16.789916 C4.65546218,16.3092437 4.59831933,15.7579832 4.59159664,15.1327731 L4.40672269,15.1327731 L4.40672269,15.4151261 C4.40672269,15.687395 4.18487395,15.9058824 3.91596639,15.9058824 C3.64369748,15.9058824 3.42184874,15.687395 3.42184874,15.4151261 L3.42184874,14.6386555 C3.42184874,14.3663866 3.64369748,14.1478992 3.91260504,14.1478992 L4.61848739,14.1478992 C4.65882353,13.6672269 4.75630252,13.2033613 4.93781513,12.789916 L4,12.507563 C3.78487395,12.4403361 3.64033613,12.2352941 3.65378151,12.010084 L3.71428571,10.8436975 C3.72773109,10.5714286 3.95630252,10.3462185 4.23193277,10.3764706 C4.50420168,10.389916 4.71260504,10.6218487 4.69915966,10.8941176 L4.65882353,11.6773109 L5.25378151,11.8554622 C5.23697479,11.7445378 5.22689076,11.6302521 5.22689076,11.5159664 C5.22689076,9.85546218 6.85714286,9.85546218 7.55630252,9.85546218 C8.25210084,9.85546218 9.88235294,9.85546218 9.88235294,11.5159664 C9.88235294,11.6336134 9.87226891,11.7411765 9.85546218,11.8487395 L10.4201681,11.6773109 L10.3798319,10.8941176 C10.3663866,10.6218487 10.5747899,10.389916 10.8436975,10.3764706 C11.1058824,10.3529412 11.3378151,10.5478992 11.3613445,10.8134454 L11.3613445,10.8436975 L11.4252101,12.010084 C11.4352941,12.2352941 11.2941176,12.4403361 11.0756303,12.507563 L10.1546218,12.7865546 C10.3394958,13.2 10.4369748,13.6672269 10.4773109,14.1512605 L11.1865546,14.1512605 L11.1865546,14.1512605 Z M7.51932773,13.2840336 C7.79159664,13.2840336 8.01344538,13.502521 8.01344538,13.7747899 L8.01344538,16.6789916 C8.01344538,16.9512605 7.79159664,17.1731092 7.51932773,17.1731092 C7.24705882,17.1731092 7.02521008,16.9512605 7.02521008,16.6789916 L7.02521008,13.7747899 C7.02857143,13.5058824 7.24705882,13.2840336 7.51932773,13.2840336 L7.51932773,13.2840336 Z M22.6722689,8.49411765 L22.6722689,4.4605042 C22.205042,4.81344538 21.5798319,5.1092437 20.7865546,5.34789916 C19.4252101,5.75798319 17.6369748,5.98319328 15.7512605,5.98319328 C13.8655462,5.98319328 12.0806723,5.75798319 10.7159664,5.3512605 C9.91260504,5.1092437 9.27731092,4.80672269 8.80672269,4.45042017 L8.80672269,6.81680672 C9.88907563,7.04537815 10.6420168,7.54285714 11.3310924,7.99663866 C12.2823529,8.62521008 13.0285714,9.11932773 14.4739496,8.89747899 C14.6218487,8.87731092 14.7697479,8.91428571 14.8840336,9.00840336 C14.9915966,9.10252101 15.0689076,9.23361345 15.0722689,9.37815126 C15.0722689,9.43865546 15.0722689,9.8487395 15.0689076,10.4605042 C15.297479,10.4672269 15.5226891,10.4773109 15.7546218,10.4773109 C17.5462185,10.4773109 19.2336134,10.2655462 20.5042017,9.88571429 C21.7579832,9.50252101 22.4336134,8.92773109 22.6722689,8.49411765 L22.6722689,8.49411765 Z M22.6722689,13.9932773 L22.6722689,9.91260504 C22.1781513,10.2823529 21.5394958,10.594958 20.7865546,10.8201681 C19.4252101,11.2302521 17.6369748,11.4554622 15.7512605,11.4554622 C15.5159664,11.4554622 15.2840336,11.4420168 15.0521008,11.4352941 C15.0319328,12.7731092 14.9781513,14.5142857 14.8537815,15.9394958 C15.1495798,15.9529412 15.4453782,15.9697479 15.7512605,15.9697479 C17.5394958,15.9697479 19.2268908,15.7579832 20.5008403,15.3781513 C21.7546218,14.9983193 22.4369748,14.4235294 22.6722689,13.9932773 L22.6722689,13.9932773 Z M22.6722689,19.0420168 L22.6722689,15.4117647 C22.1781513,15.7815126 21.5394958,16.0941176 20.7865546,16.3193277 C19.4218487,16.7294118 17.6369748,16.9546218 15.7512605,16.9546218 C15.4117647,16.9546218 15.0823529,16.9344538 14.7529412,16.9210084 C14.7294118,17.1092437 14.702521,17.2840336 14.6756303,17.4453782 C14.4504202,18.7294118 13.2672269,19.9798319 11.9428571,21.0151261 C13.0588235,21.2470588 14.3697479,21.3747899 15.7378151,21.3747899 C17.5226891,21.3747899 19.210084,21.1630252 20.4907563,20.7798319 C21.9394958,20.3462185 22.6722689,19.7613445 22.6722689,19.0420168 L22.6722689,19.0420168 Z M7.55294118,22.5882353 C9.32773109,21.7176471 13.3445378,19.3512605 13.7042017,17.2773109 C13.7478992,17.0352941 13.7815126,16.7529412 13.8151261,16.4470588 C13.8151261,16.4268908 13.805042,16.4033613 13.8084034,16.3831933 C13.8117647,16.3563025 13.8252101,16.3327731 13.8319328,16.3058824 C13.989916,14.7361345 14.0504202,12.5445378 14.0705882,11.0487395 C14.0605042,11.0016807 14.0470588,10.9546218 14.0504202,10.907563 C14.0504202,10.8739496 14.0638655,10.8470588 14.0739496,10.8134454 C14.0773109,10.4638655 14.0806723,10.1546218 14.0806723,9.91932773 C12.5747899,10 11.6638655,9.39831933 10.7831933,8.81680672 C9.89579832,8.23193277 9.05546218,7.67731092 7.55630252,7.67394958 L7.54957983,7.67394958 C6.04705882,7.67394958 5.20672269,8.22857143 4.31932773,8.81680672 C3.42857143,9.40504202 2.5210084,9.99663866 1.02184874,9.92605042 C1.02857143,11.394958 1.0789916,15.4252101 1.40504202,17.2773109 C1.76806723,19.3478992 5.77815126,21.7142857 7.55294118,22.5882353 Z M10.9848739,1.57647059 C9.78151261,1.9394958 9.05546218,2.42689076 8.86722689,2.98823529 C8.86722689,2.99159664 8.87394958,2.99495798 8.87394958,2.99831933 C9.05882353,3.55966387 9.79495798,4.04705882 11.0016807,4.41008403 C12.2756303,4.78991597 13.9596639,5.00168067 15.7512605,5.00168067 C17.5428571,5.00168067 19.2302521,4.78991597 20.5008403,4.41008403 C21.6739496,4.05714286 22.4033613,3.58655462 22.6117647,3.04201681 C22.6151261,3.03529412 22.6218487,3.02857143 22.6252101,3.02184874 C22.4504202,2.43697479 21.7378151,1.95294118 20.4907563,1.57647059 C19.2201681,1.19663866 17.5294118,0.98487395 15.7378151,0.98487395 C13.9428571,0.98487395 12.2554622,1.19327731 10.9848739,1.57647059 Z M20.7764706,0.635294118 C22.6890756,1.21008403 23.6571429,2.10756303 23.6571429,3.31092437 L23.6571429,19.0420168 C23.6571429,20.2453782 22.6890756,21.1462185 20.7764706,21.7210084 C19.405042,22.1310924 17.6168067,22.3563025 15.7378151,22.3563025 C13.9462185,22.3563025 12.2453782,22.1445378 10.9008403,21.7714286 C9.89915966,22.4470588 8.85042017,23.0487395 7.76134454,23.5798319 C7.62689076,23.6436975 7.47226891,23.6436975 7.34117647,23.5798319 C7.08235294,23.4554622 0.974789916,20.5478992 0.433613445,17.4453782 C0.0168067227,15.0789916 0.0335198459,9.60336134 0.0335198459,9.37142857 C0.0369747899,9.09915966 0.258823529,8.87731092 0.531092437,8.88067227 C0.568067227,8.88067227 0.605042017,8.88403361 0.642016807,8.89411765 C2.07394958,9.11932773 2.82352941,8.62184874 3.77478992,7.99327731 C4.69915966,7.38151261 5.74789916,6.68907563 7.54957983,6.68907563 L7.55630252,6.68907563 C7.65042017,6.68907563 7.73445378,6.69915966 7.81848739,6.70252101 L7.81848739,3.31092437 C7.81848739,3.11932773 7.84537815,2.93445378 7.89579832,2.75630252 L7.89915966,2.75294118 C8.16806723,1.82521008 9.11260504,1.11260504 10.6991597,0.638655462 C12.0605042,0.225210084 13.8521008,0 15.7378151,0 C17.6268908,0 19.4151261,0.225210084 20.7764706,0.635294118 Z" id="Data-virus_1Light"></path>
        </g>
    </g>
</svg>

<svg width="24" height="24" viewBox="0 0 24 24" xmlns="http://www.w3.org/2000/svg"><path d="M7.553 17.65c1.55 0 1.976-.568 1.976-2.635 0-1.29-.188-1.98-.632-2.312-.285-.216-.726-.32-1.34-.32-.623 0-1.063.108-1.352.326-.437.333-.625 1.025-.625 2.306-.004 2.067.42 2.635 1.973 2.635zm.003-6.806c-1.34 0-1.34.299-1.34.675 0 .037.002.057.006.088.373-.135.81-.209 1.33-.209.529 0 .966.074 1.339.212.003-.03.006-.054.006-.09 0-.38 0-.676-1.34-.676zm3.63 3.307c.273 0 .495.219.495.491v.773a.491.491 0 01-.985 0v-.286h-.185c-.007.626-.064 1.18-.198 1.66l.766.233a.5.5 0 01.35.497l-.064 1.167a.494.494 0 01-.491.467h-.027a.493.493 0 01-.467-.518l.04-.783-.52-.158c-.438.592-1.164.935-2.347.935-1.19 0-1.916-.343-2.353-.938l-.538.161.04.783a.494.494 0 01-.463.518h-.03a.49.49 0 01-.491-.464l-.06-1.166a.493.493 0 01.345-.498l.784-.235c-.132-.48-.189-1.032-.195-1.657h-.185v.282a.491.491 0 01-.985 0v-.776c0-.273.222-.491.49-.491h.706c.04-.48.138-.945.32-1.358L4 12.508a.493.493 0 01-.346-.498l.06-1.166c.014-.273.242-.498.518-.468.272.014.48.246.467.518l-.04.783.595.178a2.275 2.275 0 01-.027-.339c0-1.66 1.63-1.66 2.33-1.66.695 0 2.325 0 2.325 1.66 0 .118-.01.225-.027.333l.565-.172-.04-.783a.492.492 0 01.464-.518.478.478 0 01.517.437v.03l.064 1.167a.496.496 0 01-.35.498l-.92.279c.184.413.282.88.322 1.364h.71zm-3.667-.867c.273 0 .494.219.494.49v2.905a.495.495 0 01-.988 0v-2.904a.496.496 0 01.494-.491zm15.153-4.79V4.461c-.467.352-1.092.648-1.885.887-1.362.41-3.15.635-5.036.635-1.885 0-3.67-.225-5.035-.632-.803-.242-1.439-.544-1.91-.9v2.366c1.083.228 1.836.726 2.525 1.18.951.628 1.698 1.122 3.143.9a.517.517 0 01.598.48c0 .062 0 .472-.003 1.084.228.006.454.016.686.016 1.791 0 3.479-.211 4.75-.591 1.253-.383 1.929-.958 2.167-1.392zm0 5.5V9.912c-.494.37-1.133.682-1.885.907-1.362.41-3.15.635-5.036.635-.235 0-.467-.013-.699-.02-.02 1.338-.074 3.08-.198 4.504.296.014.591.03.897.03 1.788 0 3.476-.211 4.75-.59 1.254-.38 1.936-.955 2.171-1.386zm0 5.048v-3.63c-.494.37-1.133.682-1.885.907-1.365.41-3.15.636-5.036.636-.34 0-.669-.02-.998-.034-.024.188-.05.363-.077.524-.226 1.284-1.409 2.535-2.733 3.57 1.116.232 2.427.36 3.795.36 1.785 0 3.472-.212 4.753-.595 1.448-.434 2.181-1.019 2.181-1.738zm-15.12 3.546c1.776-.87 5.793-3.237 6.152-5.31.044-.243.078-.525.111-.83 0-.021-.01-.045-.007-.065.004-.027.017-.05.024-.077.158-1.57.218-3.761.239-5.257-.01-.047-.024-.094-.02-.141 0-.034.013-.06.023-.095.003-.35.007-.658.007-.894-1.506.081-2.417-.52-3.298-1.102-.887-.585-1.728-1.14-3.227-1.143H7.55c-1.503 0-2.343.555-3.23 1.143-.891.588-1.799 1.18-3.298 1.11.007 1.468.057 5.498.383 7.35.363 2.07 4.373 4.437 6.148 5.311zm3.433-21.012c-1.203.363-1.93.85-2.118 1.412 0 .004.007.007.007.01.185.562.921 1.05 2.128 1.412 1.274.38 2.958.592 4.75.592 1.79 0 3.478-.212 4.749-.592 1.173-.353 1.902-.823 2.11-1.368l.014-.02c-.175-.585-.887-1.07-2.134-1.446-1.27-.38-2.962-.591-4.753-.591-1.795 0-3.483.208-4.753.591zm9.791-.94c1.913.574 2.881 1.472 2.881 2.675v15.731c0 1.203-.968 2.104-2.88 2.679-1.372.41-3.16.635-5.04.635-1.79 0-3.492-.211-4.836-.585a25.943 25.943 0 01-3.14 1.809.485.485 0 01-.42 0c-.259-.125-6.366-3.032-6.907-6.135-.417-2.366-.4-7.842-.4-8.074a.495.495 0 01.608-.477c1.432.225 2.182-.272 3.133-.9.924-.612 1.973-1.305 3.775-1.305h.006c.094 0 .178.01.262.014V3.31c0-.192.027-.377.078-.555l.003-.003c.27-.928 1.214-1.64 2.8-2.114C12.061.225 13.852 0 15.738 0c1.889 0 3.677.225 5.038.635z" fill="#5CB615" fill-rule="nonzero"/></svg>
